icon-themes/breeze_svg/cmd/sc_patternfield.svg

<svg viewBox="0 0 16 16" xmlns="http://www.w3.org/2000/svg">/&gt;<path d="m5 3v2h-2v1h2v4h-2v1h2v2h1v-2h4v2h1v-2h2v-1h-2v-4h2v-1h-2v-2h-1v2h-4v-2zm1 3h4v4h-4z" fill="#4d4d4d"/></svg>

<svg xmlns="http://www.w3.org/2000/svg" viewBox="0 0 16 16">
     />
 <path 
     style="fill:#4d4d4d" 
     d="M 5 3 L 5 5 L 3 5 L 3 6 L 5 6 L 5 10 L 3 10 L 3 11 L 5 11 L 5 13 L 6 13 L 6 11 L 10 11 L 10 13 L 11 13 L 11 11 L 13 11 L 13 10 L 11 10 L 11 6 L 13 6 L 13 5 L 11 5 L 11 3 L 10 3 L 10 5 L 6 5 L 6 3 L 5 3 z M 6 6 L 10 6 L 10 10 L 6 10 L 6 6 z "
     />
 </svg>
